X:150
T: Leg of the Duck
S: J.O'Brien: "Irish Folk Dance Music"
Z: B.Black
M: 6/8
L: 1/8
R: jig
K: D
de |: fdd edd | fef dBA | Bee e2 d |\
Bee e2 d/e/ |
fdd edd | fef dBA | Bdd d2 A | Bdd d3 :|
fga efg | fef dBA | Bee ede | Bee e2 g |
fga efg | fef dBA | Bdd d2 A | Bdd d3 :|
